assets/icons/24px/stroke/add-to-playlist-24px.svg

<svg width="24" height="24" viewBox="0 0 24 24" fill="none" xmlns="http://www.w3.org/2000/svg">
<path fill-rule="evenodd" clip-rule="evenodd" d="M2 5C2 4.44772 2.44772 4 3 4H21C21.5523 4 22 4.44772 22 5C22 5.55228 21.5523 6 21 6H3C2.44772 6 2 5.55228 2 5ZM2 12C2 11.4477 2.44772 11 3 11H21C21.5523 11 22 11.4477 22 12C22 12.5523 21.5523 13 21 13H3C2.44772 13 2 12.5523 2 12ZM2 19C2 18.4477 2.44772 18 3 18H12C12.5523 18 13 18.4477 13 19C13 19.5523 12.5523 20 12 20H3C2.44772 20 2 19.5523 2 19Z" fill="white"/>
<path fill-rule="evenodd" clip-rule="evenodd" d="M18.5 15C19.0523 15 19.5 15.4477 19.5 16V17.5H21C21.5523 17.5 22 17.9477 22 18.5C22 19.0523 21.5523 19.5 21 19.5H19.5V21C19.5 21.5523 19.0523 22 18.5 22C17.9477 22 17.5 21.5523 17.5 21V19.5H16C15.4477 19.5 15 19.0523 15 18.5C15 17.9477 15.4477 17.5 16 17.5H17.5V16C17.5 15.4477 17.9477 15 18.5 15Z" fill="white"/>
</svg>

<svg width="24" height="24" fill="none" xmlns="http://www.w3.org/2000/svg"><path fill-rule="evenodd" clip-rule="evenodd" d="M2 5a1 1 0 0 1 1-1h18a1 1 0 1 1 0 2H3a1 1 0 0 1-1-1zm0 7a1 1 0 0 1 1-1h18a1 1 0 1 1 0 2H3a1 1 0 0 1-1-1zm0 7a1 1 0 0 1 1-1h9a1 1 0 1 1 0 2H3a1 1 0 0 1-1-1zm16.5-4a1 1 0 0 1 1 1v1.5H21a1 1 0 1 1 0 2h-1.5V21a1 1 0 1 1-2 0v-1.5H16a1 1 0 1 1 0-2h1.5V16a1 1 0 0 1 1-1z" fill="#fff"/></svg>
